X:266
T:Tipsy Gypsy
C:David Grisman
N:Transcribed by Jim Davis TablEdited by Wendy Anthony
L:1/8
Q:1/4=240
M:4/4
K:F
z6 A^c |: "Dm""Part A"df e^c df ec | d2 d2 z2 ba | _a=a _af af ed | "A7"^cd e2 z2 A=c | 
^cg e=c _dg ec | ^cg e2 zg _ag | fg ed ^cd Bc |1 "Dm"AF D2 z2 A^c :|2 "Dm"AF D2 z2 D_G | 
|: "Gm""Part B"GB AB ^cB A_G | GB AB ^cB A^C | "Dm"DF D^C DF DC | DF D2 z2 D_G | 
|1 "Gm"GB AB ^cB A_G | GB AB ^cB AB | "E7"^cB AB dB AB | "A7"e6 D_G :|2 "Gm"GB AB _dB AB | 
dB AB ef ef | "E7"gf ef _af ea | "A7"a8 | 
 

